flaticon/household/armchair-3.svg

<svg xmlns="http://www.w3.org/2000/svg" width="32" height="32" viewBox="0 0 24 24">
    <path d="M7.71875 8.484375C7.796875 8.5625 7.898438 8.601562 8 8.601562 8.101562 8.601562 8.207031 8.5625 8.285156 8.484375L8.652344 8.117188C8.824219 8.199219 9.011719 8.25 9.199219 8.25 9.390625 8.25 9.578125 8.199219 9.75 8.117188L10.117188 8.484375C10.195312 8.5625 10.296875 8.601562 10.398438 8.601562 10.503906 8.601562 10.605469 8.5625 10.683594 8.484375 10.839844 8.328125 10.839844 8.074219 10.683594 7.917969L10.316406 7.550781C10.484375 7.203125 10.484375 6.796875 10.316406 6.453125L10.683594 6.085938C10.839844 5.925781 10.839844 5.675781 10.683594 5.519531 10.527344 5.363281 10.273438 5.363281 10.117188 5.519531L9.75 5.886719C9.402344 5.714844 8.996094 5.714844 8.652344 5.886719L8.28125 5.519531C8.125 5.363281 7.875 5.363281 7.71875 5.519531 7.5625 5.675781 7.5625 5.925781 7.71875 6.085938L8.085938 6.453125C7.914062 6.796875 7.914062 7.203125 8.085938 7.550781L7.71875 7.917969C7.5625 8.074219 7.5625 8.328125 7.71875 8.484375zM9.515625 6.683594C9.691406 6.859375 9.691406 7.144531 9.515625 7.316406 9.34375 7.492188 9.058594 7.492188 8.882812 7.316406 8.707031 7.144531 8.707031 6.859375 8.882812 6.683594 8.972656 6.597656 9.085938 6.550781 9.199219 6.550781 9.316406 6.550781 9.429688 6.597656 9.515625 6.683594zM14.117188 8.484375C14.195312 8.5625 14.296875 8.601562 14.398438 8.601562 14.503906 8.601562 14.605469 8.5625 14.683594 8.484375L15.050781 8.117188C15.222656 8.199219 15.410156 8.25 15.597656 8.25 15.789062 8.25 15.976562 8.199219 16.148438 8.117188L16.515625 8.484375C16.59375 8.5625 16.695312 8.601562 16.800781 8.601562 16.902344 8.601562 17.003906 8.5625 17.082031 8.484375 17.238281 8.328125 17.238281 8.074219 17.082031 7.917969L16.714844 7.550781C16.886719 7.203125 16.886719 6.796875 16.714844 6.453125L17.082031 6.085938C17.238281 5.925781 17.238281 5.675781 17.082031 5.519531 16.925781 5.363281 16.671875 5.363281 16.515625 5.519531L16.148438 5.886719C15.800781 5.714844 15.398438 5.714844 15.050781 5.886719L14.683594 5.519531C14.527344 5.363281 14.273438 5.363281 14.117188 5.519531 13.960938 5.675781 13.960938 5.925781 14.117188 6.085938L14.484375 6.453125C14.3125 6.796875 14.3125 7.203125 14.484375 7.550781L14.117188 7.917969C13.960938 8.074219 13.960938 8.328125 14.117188 8.484375zM15.917969 6.683594C16.089844 6.859375 16.089844 7.144531 15.917969 7.316406 15.742188 7.492188 15.457031 7.492188 15.28125 7.316406 15.109375 7.144531 15.109375 6.859375 15.28125 6.683594 15.371094 6.597656 15.484375 6.550781 15.597656 6.550781 15.714844 6.550781 15.828125 6.597656 15.917969 6.683594zM15.917969 6.683594"/>
    <path d="M 23.976562 12.910156 C 23.800781 11.335938 22.539062 10.042969 20.972656 9.832031 C 20.660156 9.792969 20.351562 9.796875 20.046875 9.835938 L 20.40625 6.164062 C 20.628906 4.773438 20.234375 3.359375 19.320312 2.289062 C 18.410156 1.214844 17.078125 0.601562 15.667969 0.601562 L 8.398438 0.601562 C 6.992188 0.601562 5.660156 1.21875 4.746094 2.289062 C 3.835938 3.359375 3.4375 4.773438 3.660156 6.132812 L 3.96875 9.835938 C 3.660156 9.796875 3.34375 9.789062 3.027344 9.832031 C 1.460938 10.042969 0.199219 11.335938 0.0234375 12.910156 C -0.0976562 13.992188 0.25 15.042969 0.976562 15.789062 C 2.152344 17.003906 2.800781 18.503906 2.800781 20.007812 L 2.800781 20.429688 C 2.800781 21.363281 3.53125 22.121094 4.449219 22.1875 C 4.625 22.914062 5.292969 23.398438 6.199219 23.398438 C 7.101562 23.398438 7.765625 22.921875 7.949219 22.199219 L 16.050781 22.199219 C 16.234375 22.921875 16.898438 23.398438 17.800781 23.398438 C 18.710938 23.398438 19.382812 22.910156 19.554688 22.175781 C 20.476562 22.0625 21.199219 21.28125 21.199219 20.328125 L 21.199219 20.007812 C 21.199219 18.503906 21.847656 17.007812 23.023438 15.789062 C 23.75 15.039062 24.097656 13.992188 23.976562 12.910156 Z M 4.785156 10.042969 L 4.453125 6.035156 C 4.265625 4.878906 4.59375 3.699219 5.355469 2.808594 C 6.117188 1.914062 7.226562 1.402344 8.398438 1.402344 L 15.667969 1.402344 C 16.84375 1.402344 17.953125 1.914062 18.714844 2.808594 C 19.472656 3.699219 19.804688 4.878906 19.613281 6.0625 L 19.222656 10.042969 C 19.210938 10.042969 19.203125 10.050781 19.195312 10.050781 C 19.128906 10.078125 19.0625 10.109375 18.996094 10.140625 C 18.960938 10.15625 18.929688 10.171875 18.898438 10.1875 C 18.824219 10.226562 18.753906 10.265625 18.683594 10.308594 C 18.664062 10.320312 18.644531 10.332031 18.625 10.34375 C 18.546875 10.394531 18.46875 10.445312 18.394531 10.5 C 18.390625 10.503906 18.390625 10.503906 18.390625 10.503906 C 18.320312 10.558594 18.25 10.609375 18.183594 10.667969 C 17.835938 10.96875 17.558594 11.335938 17.355469 11.738281 C 17.105469 12.121094 16.933594 12.546875 16.855469 13 L 7.144531 13 C 7.066406 12.546875 6.894531 12.117188 6.644531 11.738281 C 6.441406 11.335938 6.164062 10.96875 5.816406 10.667969 C 5.753906 10.613281 5.6875 10.5625 5.621094 10.515625 C 5.617188 10.511719 5.613281 10.507812 5.609375 10.503906 C 5.535156 10.449219 5.460938 10.398438 5.382812 10.351562 C 5.363281 10.335938 5.339844 10.324219 5.320312 10.3125 C 5.25 10.269531 5.179688 10.230469 5.109375 10.191406 C 5.074219 10.175781 5.039062 10.160156 5.003906 10.140625 C 4.9375 10.113281 4.875 10.082031 4.8125 10.054688 C 4.804688 10.050781 4.796875 10.046875 4.785156 10.042969 Z M 6.773438 13.800781 L 17.226562 13.800781 C 17.871094 13.800781 18.398438 14.324219 18.398438 14.972656 L 18.398438 16.160156 C 18.398438 16.402344 18.203125 16.601562 17.957031 16.601562 L 6.042969 16.601562 C 5.796875 16.601562 5.601562 16.402344 5.601562 16.160156 L 5.601562 14.972656 C 5.601562 14.324219 6.128906 13.800781 6.773438 13.800781 Z M 6.199219 22.597656 C 5.847656 22.597656 5.480469 22.488281 5.304688 22.199219 L 7.097656 22.199219 C 6.921875 22.488281 6.550781 22.597656 6.199219 22.597656 Z M 17.800781 22.597656 C 17.449219 22.597656 17.078125 22.488281 16.902344 22.199219 L 18.695312 22.199219 C 18.519531 22.488281 18.152344 22.597656 17.800781 22.597656 Z M 22.449219 15.234375 C 21.128906 16.597656 20.398438 18.292969 20.398438 20.007812 L 20.398438 20.328125 C 20.398438 20.917969 19.917969 21.398438 19.328125 21.398438 L 4.570312 21.398438 C 4.035156 21.398438 3.601562 20.964844 3.601562 20.429688 L 3.601562 20.007812 C 3.601562 18.292969 2.871094 16.597656 1.550781 15.234375 C 0.992188 14.65625 0.726562 13.839844 0.816406 13 C 0.953125 11.785156 1.925781 10.785156 3.132812 10.625 C 3.261719 10.609375 3.386719 10.601562 3.511719 10.601562 C 3.804688 10.601562 4.089844 10.652344 4.359375 10.742188 C 4.417969 10.761719 4.472656 10.78125 4.53125 10.804688 C 4.628906 10.84375 4.726562 10.890625 4.820312 10.945312 C 4.875 10.972656 4.921875 11.003906 4.972656 11.039062 C 5.066406 11.097656 5.160156 11.164062 5.25 11.238281 C 5.519531 11.46875 5.75 11.753906 5.914062 12.078125 C 6.074219 12.390625 6.175781 12.734375 6.203125 13.09375 C 5.394531 13.339844 4.800781 14.085938 4.800781 14.972656 L 4.800781 16.160156 C 4.800781 16.84375 5.359375 17.398438 6.042969 17.398438 L 17.960938 17.398438 C 18.644531 17.398438 19.199219 16.84375 19.199219 16.160156 L 19.199219 14.972656 C 19.199219 14.085938 18.605469 13.339844 17.796875 13.09375 C 17.824219 12.738281 17.921875 12.394531 18.082031 12.082031 C 18.417969 11.425781 19.011719 10.929688 19.710938 10.71875 L 19.796875 10.691406 C 20.140625 10.601562 20.5 10.578125 20.867188 10.625 C 22.074219 10.785156 23.046875 11.785156 23.183594 13 C 23.273438 13.839844 23.007812 14.65625 22.449219 15.234375 Z M 22.449219 15.234375"/>
</svg>

<svg xmlns="http://www.w3.org/2000/svg" width="32" height="32" viewBox="0 0 24 24">
    <path d="M7.719 8.484c.078.079.18.118.281.118.102 0 .207-.04.285-.118l.367-.367c.172.082.36.133.547.133.192 0 .38-.05.551-.133l.367.367a.399.399 0 0 0 .566 0 .4.4 0 0 0 0-.566l-.367-.367a1.258 1.258 0 0 0 0-1.098l.368-.367a.4.4 0 0 0-.567-.566l-.367.367a1.233 1.233 0 0 0-1.098 0l-.37-.367a.396.396 0 0 0-.563 0 .4.4 0 0 0 0 .566l.367.367c-.172.344-.172.75 0 1.098l-.367.367a.4.4 0 0 0 0 .566zm1.797-1.8a.446.446 0 0 1 0 .632.446.446 0 0 1-.633 0 .446.446 0 0 1 0-.632.46.46 0 0 1 .316-.133c.117 0 .23.047.317.133zm0 0M14.117 8.484a.399.399 0 0 0 .566 0l.368-.367c.172.082.36.133.547.133.191 0 .379-.05.55-.133l.368.367a.399.399 0 0 0 .566 0 .4.4 0 0 0 0-.566l-.367-.367a1.233 1.233 0 0 0 0-1.098l.367-.367a.4.4 0 0 0-.566-.566l-.368.367a1.233 1.233 0 0 0-1.097 0l-.367-.367a.4.4 0 0 0-.567.566l.367.367c-.171.344-.171.75 0 1.098l-.367.367a.4.4 0 0 0 0 .566zm1.801-1.8a.453.453 0 0 1 0 .632.45.45 0 0 1-.637 0 .453.453 0 0 1 0-.632.46.46 0 0 1 .317-.133c.117 0 .23.047.32.133zm0 0"/>
    <path d="M23.977 12.91c-.176-1.574-1.438-2.867-3.004-3.078a3.67 3.67 0 0 0-.926.004l.36-3.672A4.792 4.792 0 0 0 19.32 2.29 4.776 4.776 0 0 0 15.668.602h-7.27a4.801 4.801 0 0 0-3.652 1.687A4.77 4.77 0 0 0 3.66 6.133l.309 3.703a3.615 3.615 0 0 0-.942-.004C1.461 10.043.2 11.336.023 12.91c-.12 1.082.227 2.133.954 2.88C2.152 17.003 2.8 18.503 2.8 20.007v.422c0 .933.73 1.691 1.648 1.758.176.726.844 1.21 1.75 1.21.903 0 1.567-.476 1.75-1.199h8.102c.183.723.847 1.2 1.75 1.2.91 0 1.582-.489 1.754-1.223a1.87 1.87 0 0 0 1.644-1.848v-.32c0-1.504.649-3 1.824-4.219.727-.75 1.075-1.797.954-2.879zM4.785 10.043l-.332-4.008a3.98 3.98 0 0 1 .902-3.226 3.99 3.99 0 0 1 3.043-1.407h7.27c1.176 0 2.285.512 3.047 1.407.758.89 1.09 2.07.898 3.253l-.39 3.981c-.012 0-.02.008-.028.008-.066.027-.133.058-.199.09-.035.015-.066.03-.098.046a3.81 3.81 0 0 0-.214.122l-.059.035c-.078.05-.156.101-.23.156l-.004.004c-.07.055-.141.105-.207.164-.348.3-.625.668-.829 1.07-.25.383-.421.809-.5 1.262h-9.71a3.316 3.316 0 0 0-.5-1.262 3.492 3.492 0 0 0-.829-1.07 2.39 2.39 0 0 0-.195-.152l-.012-.012a2.87 2.87 0 0 0-.226-.152c-.02-.016-.043-.028-.063-.04-.07-.042-.14-.082-.21-.12-.036-.016-.07-.032-.106-.051-.066-.028-.129-.059-.191-.086a.19.19 0 0 0-.028-.012zm1.988 3.758h10.454c.644 0 1.171.523 1.171 1.172v1.187a.44.44 0 0 1-.441.442H6.043a.44.44 0 0 1-.441-.442v-1.187c0-.649.527-1.172 1.171-1.172zM6.2 22.598c-.351 0-.719-.11-.894-.399h1.793c-.176.29-.547.399-.899.399zm11.602 0c-.352 0-.723-.11-.899-.399h1.793c-.175.29-.543.399-.894.399zm4.648-7.364c-1.32 1.364-2.05 3.059-2.05 4.774v.32c0 .59-.481 1.07-1.07 1.07H4.57a.969.969 0 0 1-.968-.968v-.422c0-1.715-.73-3.41-2.051-4.774C.992 14.656.727 13.84.816 13c.137-1.215 1.11-2.215 2.317-2.375.129-.016.254-.023.379-.023a2.679 2.679 0 0 1 1.02.203c.097.039.195.086.288.14.055.028.102.059.153.094.093.059.187.125.277.2a2.739 2.739 0 0 1 .953 1.855 1.97 1.97 0 0 0-1.402 1.879v1.187c0 .684.558 1.238 1.242 1.238h11.918c.684 0 1.238-.554 1.238-1.238v-1.187a1.97 1.97 0 0 0-1.402-1.88c.027-.355.125-.698.285-1.011a2.725 2.725 0 0 1 1.629-1.363l.086-.028c.344-.09.703-.113 1.07-.066 1.207.16 2.18 1.16 2.317 2.375.09.84-.176 1.656-.735 2.234zm0 0"/>
</svg>
